src/16/panel/weather-clear.svg

<svg height="16" width="16" xmlns="http://www.w3.org/2000/svg"><defs><style id="current-color-scheme" type="text/css">.ColorScheme-Text{color:#dfdfdf;}.ColorScheme-Highlight{color:#5294e2;}</style></defs><path d="M8 0l-.5 1.031c.165-.011.332-.03.5-.03.168 0 .335.019.5.03L8 0zm0 2a6 6 0 1 0 0 12A6 6 0 0 0 8 2zm-5.656.344l.375 1.094c.218-.252.467-.501.719-.72l-1.094-.374zm11.312 0l-1.094.375c.252.218.501.467.72.719l.374-1.094zM1.031 7.5L0 8l1.031.5C1.02 8.335 1 8.168 1 8c0-.168.02-.335.031-.5zm13.938 0c.011.165.031.332.031.5 0 .168-.02.335-.031.5L16 8l-1.031-.5zm-12.25 5.063l-.375 1.093 1.094-.375a7.326 7.326 0 0 1-.72-.719zm10.562 0c-.218.25-.467.5-.719.718l1.094.375-.375-1.094zM7.5 14.969L8 16l.5-1.031c-.165.011-.332.031-.5.031-.168 0-.335-.02-.5-.031z" style="marker:none" color="#bebebe" overflow="visible" fill="#dfdfdf" stroke-width="2"/></svg>

<svg xmlns="http://www.w3.org/2000/svg" width="16" height="16" version="1.1">
 <defs>
  <style id="current-color-scheme" type="text/css">
   .ColorScheme-Text { color:#dfdfdf; } .ColorScheme-Highlight { color:#4285f4; }
  </style>
 </defs>
 <path style="fill:currentColor" class="ColorScheme-Text" d="M 8,0 7.5,1.03 C 7.665,1.02 7.832,1 8,1 8.168,1 8.335,1.02 8.5,1.03 Z M 8,2 C 4.686,2 2,4.69 2,8 2,11.31 4.686,14 8,14 11.314,14 14,11.31 14,8 14,4.69 11.314,2 8,2 Z M 2.344,2.34 2.719,3.44 C 2.937,3.19 3.186,2.94 3.437,2.72 Z M 13.656,2.34 12.562,2.72 C 12.814,2.94 13.063,3.19 13.281,3.44 Z M 1.031,7.5 0,8 1.031,8.5 C 1.02,8.33 1,8.17 1,8 1,7.83 1.02,7.67 1.031,7.5 Z M 14.969,7.5 C 14.98,7.67 15,7.83 15,8 15,8.17 14.98,8.33 14.969,8.5 L 16,8 Z M 2.719,12.56 2.344,13.66 3.437,13.28 C 3.186,13.06 2.937,12.81 2.719,12.56 Z M 13.281,12.56 C 13.063,12.81 12.814,13.06 12.562,13.28 L 13.656,13.66 Z M 7.5,14.97 8,16 8.5,14.97 C 8.335,14.98 8.168,15 8,15 7.832,15 7.665,14.98 7.5,14.97 Z"/>
</svg>
